!!! OTL: Berkowitz608
!!! Chapter: 1
!!! Section: V
!!! Page: 155
!!! Mode: 
!!! Encoder: AR
**kern
*staff1
=1-
!!pagebreak:original
*clefG2
*k[]
*C:
*M3/8
4d-/
8b-\
=2
4.b-\
=3
8cc\
4a/
=4
4.c#/
=5
8.cn/L
16e-/k
8B/J
=6
8c/L
8e-/
8b/J
=7
8dd\L
8cc\
8a-\J
=8
4g-/
8b-\
=9
4a/
8c#/
=10
4B/
8r
=11
16a/LL
16g#/J
8a/
8c#/J
=12
!!linebreak:original
4.B-/
=13
8G/L
8Bn/
8d#/J
=14
8g/L
8f/
8A-/J
=15
8e/L
8.d/
16f/Jk
=16
4d-/
8B/
=17
4A/
8f#/
=18
4.f#/
=19
4.A/
=20
4.A/
=21
[4.f#/
=22
4.f#/_
=23
4f#/]
8r
==
*-
